X:9
T:Mr. Lane's Trumpet Minuet 
T:John Malchair’s Third Collection of Tunes
%%VWML:Malchair-3619-p9
F:https://www.vwml.org/record/Malchair/3619/p9
F:www.vwml.org/topics/historic-dance-and-tune-books/Malchair
Z:Ian Hayden Jan 2020
M:3/4
L:1/8
K:D
DE F2F2|de f2d2|fe d2f2|ed cB A2|
DE F2F2|de f2d2|fe de fg|e6|]
fg a2c2|B4 AB/c/|dc de d2|ed ef e2|
fe de fg|a6|AG AB AB|A2F2A2|d2 AB AB|
A2 GF ED|f2 fg fg|e2 dc BA|d2 fe dc|d6|]
W:
T:Beau's Delight, The
T:or Hark how the Cock Crows
T:John Malchair’s Third Collection of Tunes
F:https://www.vwml.org/record/Malchair/3619/p9
N: catalogued as "The Bean's Delight" at vwml.org
Z:Ian Hayden Jan 2020
M:6/4
L:1/4
K:D
A|F>GAD2d|c>deA2 d/c/|d>ef B>gf|e3 A3|
F>GAD2d|c>deA2 a/g/|f>ga A>d c|1d3 D2:|2 d3 D3|]
AFA BGB|AFA BGB|AFA Bcd|c3 A2f|
ece fdf|afa bgb|afa efg|f3 d3|]



I:abc-charset utf-8
